assets/icons/emptynewslight.svg

<svg width="32" height="32" viewBox="0 0 32 32" fill="none" xmlns="http://www.w3.org/2000/svg">
<path d="M20 29H18M6 16H11.5M6 20H14M6 24H10M9.5 11H8C5.172 11 3.757 11 2.879 11.879C2 12.757 2 14.172 2 17V23C2 25.828 2 27.243 2.879 28.121C3.757 29 5.172 29 8 29H18M18 29V23.5" stroke="#424A55" stroke-width="1.5" stroke-linecap="round" stroke-linejoin="round"/>
<path d="M18 27C18 27.5304 18.2099 28.0391 18.5858 28.4142C18.9617 28.7893 19.4684 29 20 29C20.5316 29 21.0383 28.7893 21.4142 28.4142C21.7901 28.0391 22 27.5304 22 27L22.0002 23.5" stroke="#424A55" stroke-width="1.5" stroke-linecap="round" stroke-linejoin="round"/>
<path d="M14.4005 4.75953C15.8908 3.29902 17.8973 2.48566 19.9839 2.49619C22.0705 2.50673 24.0687 3.34032 25.5442 4.81581C27.0197 6.2913 27.8533 8.28946 27.8638 10.3761C27.8744 12.4627 27.061 14.4692 25.6005 15.9595L21.4145 20.1455C21.0394 20.5205 20.5308 20.7311 20.0005 20.7311C19.4702 20.7311 18.9615 20.5205 18.5865 20.1455L14.4005 15.9595C12.9154 14.4743 12.0811 12.4599 12.0811 10.3595C12.0811 8.25915 12.9154 6.24479 14.4005 4.75953Z" stroke="#424A55" stroke-width="1.5" stroke-linejoin="round"/>
<path d="M20 13.3594C21.6569 13.3594 23 12.0162 23 10.3594C23 8.70252 21.6569 7.35938 20 7.35938C18.3431 7.35938 17 8.70252 17 10.3594C17 12.0162 18.3431 13.3594 20 13.3594Z" stroke="#424A55" stroke-width="1.5" stroke-linecap="round" stroke-linejoin="round"/>
</svg>

<svg width="32" height="32" viewBox="0 0 32 32" fill="none" xmlns="http://www.w3.org/2000/svg"><path d="M20 29h-2M6 16h5.5M6 20h8m-8 4h4m-.5-13H8c-2.83 0-4.24 0-5.12.88S2 14.18 2 17v6c0 2.83 0 4.24.88 5.12S5.18 29 8 29h10m0 0v-5.5m0 3.5a2 2 0 1 0 4 0v-3.5" stroke="#424A55" stroke-width="1.5" stroke-linecap="round" stroke-linejoin="round"/><path d="M14.4 4.76a7.92 7.92 0 0 1 11.2 11.2l-4.19 4.19a2 2 0 0 1-2.82 0l-4.19-4.19a7.9 7.9 0 0 1 0-11.2Z" stroke="#424A55" stroke-width="1.5" stroke-linejoin="round"/><path d="M20 13.36a3 3 0 1 0 0-6 3 3 0 0 0 0 6" stroke="#424A55" stroke-width="1.5" stroke-linecap="round" stroke-linejoin="round"/></svg>
